round/svg/local_car_wash.svg

<svg xmlns="http://www.w3.org/2000/svg" width="24" height="24"><path fill="none" d="M0 0h24v24H0V0z"/><path d="M17 5c.83 0 1.5-.67 1.5-1.5 0-.66-.66-1.64-1.11-2.22a.498.498 0 0 0-.79 0c-.44.58-1.1 1.56-1.1 2.22 0 .83.67 1.5 1.5 1.5zm-5 0c.83 0 1.5-.67 1.5-1.5 0-.66-.66-1.64-1.11-2.22a.498.498 0 0 0-.79 0c-.44.58-1.1 1.56-1.1 2.22 0 .83.67 1.5 1.5 1.5zM7 5c.83 0 1.5-.67 1.5-1.5 0-.66-.66-1.64-1.11-2.22a.498.498 0 0 0-.79 0c-.44.58-1.1 1.56-1.1 2.22C5.5 4.33 6.17 5 7 5zm11.92 3.01C18.72 7.42 18.16 7 17.5 7h-11c-.66 0-1.21.42-1.42 1.01l-1.97 5.67c-.07.21-.11.43-.11.66v7.16c0 .83.67 1.5 1.5 1.5S6 22.33 6 21.5V21h12v.5c0 .82.67 1.5 1.5 1.5.82 0 1.5-.67 1.5-1.5v-7.16c0-.22-.04-.45-.11-.66l-1.97-5.67zM6.5 18c-.83 0-1.5-.67-1.5-1.5S5.67 15 6.5 15s1.5.67 1.5 1.5S7.33 18 6.5 18zm11 0c-.83 0-1.5-.67-1.5-1.5s.67-1.5 1.5-1.5 1.5.67 1.5 1.5-.67 1.5-1.5 1.5zM5 13l1.27-3.82c.14-.4.52-.68.95-.68h9.56c.43 0 .81.28.95.68L19 13H5z" fill="currentColor"/></svg>

<?xml version="1.0" encoding="utf-8"?>
<!-- Generator: Adobe Illustrator 19.1.0, SVG Export Plug-In . SVG Version: 6.00 Build 0)  -->
<svg version="1.1" xmlns="http://www.w3.org/2000/svg" xmlns:xlink="http://www.w3.org/1999/xlink" x="0px" y="0px" width="24px"
	 height="24px" viewBox="0 0 24 24" enable-background="new 0 0 24 24" xml:space="preserve">
<g id="Bounding_Boxes">
	<path fill="none" d="M0,0h24v24H0V0z"/>
</g>
<g id="Rounded" fill="currentColor">
	<path d="M17,5c0.83,0,1.5-0.67,1.5-1.5c0-0.66-0.66-1.64-1.11-2.22c-0.2-0.26-0.59-0.26-0.79,0C16.16,1.86,15.5,2.84,15.5,3.5
		C15.5,4.33,16.17,5,17,5z M12,5c0.83,0,1.5-0.67,1.5-1.5c0-0.66-0.66-1.64-1.11-2.22c-0.2-0.26-0.59-0.26-0.79,0
		C11.16,1.86,10.5,2.84,10.5,3.5C10.5,4.33,11.17,5,12,5z M7,5c0.83,0,1.5-0.67,1.5-1.5c0-0.66-0.66-1.64-1.11-2.22
		c-0.2-0.26-0.59-0.26-0.79,0C6.16,1.86,5.5,2.84,5.5,3.5C5.5,4.33,6.17,5,7,5z M18.92,8.01C18.72,7.42,18.16,7,17.5,7h-11
		C5.84,7,5.29,7.42,5.08,8.01l-1.97,5.67C3.04,13.89,3,14.11,3,14.34v7.16C3,22.33,3.67,23,4.5,23h0C5.33,23,6,22.33,6,21.5V21h12
		v0.5c0,0.82,0.67,1.5,1.5,1.5h0c0.82,0,1.5-0.67,1.5-1.5v-7.16c0-0.22-0.04-0.45-0.11-0.66L18.92,8.01z M6.5,18
		C5.67,18,5,17.33,5,16.5S5.67,15,6.5,15S8,15.67,8,16.5S7.33,18,6.5,18z M17.5,18c-0.83,0-1.5-0.67-1.5-1.5s0.67-1.5,1.5-1.5
		s1.5,0.67,1.5,1.5S18.33,18,17.5,18z M5,13l1.27-3.82C6.41,8.78,6.79,8.5,7.22,8.5h9.56c0.43,0,0.81,0.28,0.95,0.68L19,13H5z"/>
</g>
</svg>
